X: 20174
T: Jocelyn's Tree
R: jig
M: 6/8
K: Dmajor
DE|:FDB BAG|FAd faf|fgb ege|Bcc AGE|
FDB BAG|FAd faa|bge cAF|GFE DED:|
|:EFF DED|FAd fdA|fgg ege|Bcd ecA|
B2e bge|A2f afd|FAd gec|AGE DED:|
|:ABA eff|aba afd|BGE G,A,A,|CEA gec|
dcd eff|aba afd|Bge cAF|GFE DED:|

